remix/Media/play-line.svg

<svg viewBox="0 0 24 24" fill="currentColor" xmlns="http://www.w3.org/2000/svg"><path d="M16.3944 12.0001L10 7.7371V16.263L16.3944 12.0001ZM19.376 12.4161L8.77735 19.4818C8.54759 19.635 8.23715 19.5729 8.08397 19.3432C8.02922 19.261 8 19.1645 8 19.0658V4.93433C8 4.65818 8.22386 4.43433 8.5 4.43433C8.59871 4.43433 8.69522 4.46355 8.77735 4.5183L19.376 11.584C19.6057 11.7372 19.6678 12.0477 19.5146 12.2774C19.478 12.3323 19.4309 12.3795 19.376 12.4161Z"/></svg>

<svg viewBox="0 0 24 24" xmlns="http://www.w3.org/2000/svg"><path fill="none" d="M0 0h24v24H0Z"/><path d="M16.39 12l-6.4-4.27v8.52l6.39-4.27Zm2.98.41l-10.6 7.06h0c-.23.15-.55.09-.7-.14 -.06-.09-.09-.18-.09-.28V4.91v0c0-.28.22-.5.5-.5 .09 0 .19.02.27.08l10.59 7.06v0c.22.15.29.46.13.69 -.04.05-.09.1-.14.13Z"/></svg>
